X: 1202
T: An Damez Kohz
R: waltz
M: 3/4
K: Bminor
B3 cdc|Bf ed cd|B3 cdc|AB cd (3cBA|
B3 cdc|Bf ed cd|B2- BF ED|EF AB (3cBA:|
d2 cd BA|Bc dc BA|d2 cd BA|Bf ed cA|d2 cd BA|
Bc dc BA|1 Bf ed gf|ed cA Bc:|2 Bc de (3fga|gf ed cd||

